!!!COM:	Josquin des Prez
!!!CDT:	~1450-1521/08/27
!!!OTL@@FRE:	Petite camusette
!!!AGN:	Chanson
!!!SCT:	NJE 30.7
!!!SCA:	New Josquin Edition 30.7
!!!voices:	6
**kern	**kern	**kern	**kern	**kern	**kern
*staff6	*staff5	*staff4	*staff3	*staff2	*staff1
*Ivox	*Ivox	*Ivox	*Ivox	*Ivox	*Ivox
*I"Bassus	*I"Sextus	*I"Tenor	*I"Contratenor	*I"Quintus	*I"Superius
*I'B	*I'Sx	*I'T	*I'Ct	*I'Q	*I'S
*clefF4	*clefF4	*clefGv2	*clefGv2	*clefG2	*clefG2
*k[]	*k[]	*k[]	*k[]	*k[]	*k[]
*M2/1	*M2/1	*M2/1	*M2/1	*M2/1	*M2/1
*met(C|)	*met(C|)	*met(C|)	*met(C|)	*met(C|)	*met(C|)
=1-	=1-	=1-	=1-	=1-	=1-
!	!	!LO:TX:Z=6:t=Canon at the unison	!	!	!
0B	0r	0r	0r	0r	0r
=2	=2	=2	=2	=2	=2
1E	0r	0r	0r	0r	0b
1B	.	.	.	.	.
=3	=3	=3	=3	=3	=3
2r	0r	0r	0r	0b	1e
2E\	.	.	.	.	.
2G\	.	.	.	.	1b
2G\	.	.	.	.	.
=4	=4	=4	=4	=4	=4
4C/	0E	0r	0r	1e	1cc
4D\	.	.	.	.	.
4E\	.	.	.	.	.
4F\	.	.	.	.	.
4G\	.	.	.	1b	1b
4A\	.	.	.	.	.
4B\	.	.	.	.	.
4G\	.	.	.	.	.
=5	=5	=5	=5	=5	=5
1A	1AA	0e	0r	1cc	1a
1r	1E	.	.	1b	1g
=6	=6	=6	=6	=6	=6
2r	0r	1A	0e	1a	1r
2A\	.	.	.	.	.
2c\	.	1e	.	1g	2r
2c\	.	.	.	.	2cc\
=7	=7	=7	=7	=7	=7
2.F\	2r	1f	1A	1r	2cc\
.	2A\	.	.	.	2cc\
4G\	.	.	.	.	.
1A	2c\	1e	1e	2r	4cc\
.	.	.	.	.	4dd\
.	2c\	.	.	2a/	4ee\
.	.	.	.	.	4cc\
=8	=8	=8	=8	=8	=8
1D	2.F\	1d	1f	2a/	2dd\
.	.	.	.	2a/	2a/
.	4G\	.	.	.	.
1r	1A	1c	1e	4cc\	2r
.	.	.	.	4dd\	.
.	.	.	.	4ee\	2a/
.	.	.	.	4cc\	.
=9	=9	=9	=9	=9	=9
2r	1D	2r	1d	2dd\	2a/
2D\	.	2d\	.	2a/	2a/
2A\	1r	2e\	1c	1r	2.cc\
2E\	.	2e\	.	.	.
.	.	.	.	.	4b\
=10	=10	=10	=10	=10	=10
2F\	2r	2c\	2r	1r	2a/
2F\	2D\	2A/	2d\	.	2a/
1E	2G\	1B	2e\	2r	1g
.	2E\	.	2e\	2g/	.
=11	=11	=11	=11	=11	=11
2r	2F\	1A	2c\	2a/	0r
2D\	2F\	.	2A/	2a/	.
2G\	1E	1r	1B	1g	.
2E\	.	.	.	.	.
=12	=12	=12	=12	=12	=12
2F\	2r	2r	1A	1a	1r
2F\	2D\	2d\	.	.	.
1E	2G\	2e\	1r	1g	2r
.	2E\	2e\	.	.	2g/
=13	=13	=13	=13	=13	=13
1r	1F	2c\	2r	1r	2a/
.	.	2A/	2d\	.	2a/
2r	1E	1B	2e\	2r	4g/
.	.	.	.	.	4a/
2E\	.	.	2e\	2b\	4b\
.	.	.	.	.	4g/
=14	=14	=14	=14	=14	=14
2E\	1AA	1A	2c\	3.cc\V	1a
2F\	.	.	2A/	6b\	.
.	.	.	.	3a/Z	.
2E\	1r	1r	1B	3g#i/V	1r
.	.	.	.	3a/	.
2E\	.	.	.	.	.
.	.	.	.	3g#i/Z	.
=15	=15	=15	=15	=15	=15
1AA	2r	1c	1A	1a	2r
.	2AA/	.	.	.	2a/
2r	1A	1c	1r	2r	1cc
2AA/	.	.	.	2a/	.
=16	=16	=16	=16	=16	=16
1A	2r	0r	1c	1cc	2r
.	2AA/	.	.	.	2a/
2r	1A	.	1c	2r	1cc
2AA/	.	.	.	2a/	.
=17	=17	=17	=17	=17	=17
3%2AV	1r	2r	0r	2cc\	2r
.	.	2c\	.	2cc\	2e/
3A\Z	.	.	.	.	.
3.G\V	2r	2d\	.	2b\	1g
6F\	2E\	2e\	.	2b\	.
3G\Z	.	.	.	.	.
=18	=18	=18	=18	=18	=18
1A	3%2AV	1c	2r	2.e/	1r
.	.	.	2c\	.	.
.	3A\Z	.	.	.	.
.	.	.	.	4f/	.
2r	3.G\V	1B	2d\	1g	2r
2E\	6F\	.	2e\	.	2b\
.	3G\Z	.	.	.	.
=19	=19	=19	=19	=19	=19
2AA/	1A	1A	1c	1r	2cc\
2C/	.	.	.	.	2a/
2D\	2r	1r	1B	2r	2a/
2E\	2E\	.	.	2b\	2g#i/
=20	=20	=20	=20	=20	=20
1AA	3%2AV	2r	1A	2cc\	2a/
.	.	2c\	.	2cc\	2e/
.	3A\Z	.	.	.	.
2r	3.G\V	2d\	1r	2b\	1g
2E\	6F\	2e\	.	2b\	.
.	3G\Z	.	.	.	.
=21	=21	=21	=21	=21	=21
3%2AV	1A	1c	2r	2.e/	1r
.	.	.	2c\	.	.
3A\Z	.	.	.	.	.
.	.	.	.	4f/	.
3.G\V	2r	1B	2d\	1g	2r
6F\	2E\	.	2e\	.	2b\
3G\Z	.	.	.	.	.
=22	=22	=22	=22	=22	=22
1A	2AA/	1A	1c	0r	2cc\
.	2C/	.	.	.	2a/
1r	2D\	1r	1B	.	2a/
.	2E\	.	.	.	2g#i/
=23	=23	=23	=23	=23	=23
2r	0AA	1e	1A	2r	1a
2E\	.	.	.	2a/	.
2A\	.	2e\	1r	2.cc\	2r
2A\	.	2e\	.	.	2c/
.	.	.	.	4cc\	.
=24	=24	=24	=24	=24	=24
2G\	1r	2e\	1e	2b\	2g/
2A\	.	2e\	.	2a/	2c/
1E	2r	1e	2e\	1g	2r
.	2E\	.	2e\	.	2b\
=25	=25	=25	=25	=25	=25
1r	3%2AV	0r	2e\	2r	2.cc\
.	.	.	2e\	2c/	.
.	3A\Z	.	.	.	.
.	.	.	.	.	4cc\
2r	3.G\V	.	1e	2g/	2b\
2AA/	6F\	.	.	2c/	2a/
.	3G\Z	.	.	.	.
=26	=26	=26	=26	=26	=26
2C/	1E	2r	0r	4e/	1g
.	.	.	.	4f/	.
2C/	.	2e\	.	4g/	.
.	.	.	.	4e/	.
2D\	2r	2d\	.	2.f/	1r
2D\	2F\	2d\	.	.	.
.	.	.	.	4e/	.
=27	=27	=27	=27	=27	=27
1AA	2E\	2e\	2r	1c	2r
.	2C/	2e\	2e\	.	2a/
1r	2D\	2.f\	2d\	1r	2a/
.	2D\	.	2d\	.	2a/
.	.	4e\	.	.	.
=28	=28	=28	=28	=28	=28
1A	1AA	1c	2e\	1r	1cc
.	.	.	2e\	.	.
1D	1A	1r	2.f\	2r	1dd
.	.	.	.	2a/	.
.	.	.	4e\	.	.
=29	=29	=29	=29	=29	=29
1A	1AA	0e	1c	2.cc\	1ee
.	.	.	.	4cc\	.
1r	1E	.	1r	2b\	2r
.	.	.	.	2g/	2b\
=30	=30	=30	=30	=30	=30
2r	0r	1A	0e	1a	2cc\
2A\	.	.	.	.	2a/
2c\	.	1e	.	1g	2r
2c\	.	.	.	.	2cc\
=31	=31	=31	=31	=31	=31
2.F\	2r	1f	1A	1r	2cc\
.	2A\	.	.	.	2cc\
4G\	.	.	.	.	.
1A	2c\	1e	1e	2r	4cc\
.	.	.	.	.	4dd\
.	2c\	.	.	2a/	4ee\
.	.	.	.	.	4cc\
=32	=32	=32	=32	=32	=32
1D	2.F\	1d	1f	2a/	2dd\
.	.	.	.	2a/	2a/
.	4G\	.	.	.	.
1r	1A	1c	1e	4cc\	2r
.	.	.	.	4dd\	.
.	.	.	.	4ee\	2a/
.	.	.	.	4cc\	.
=33	=33	=33	=33	=33	=33
2r	1D	2r	1d	2dd\	2a/
2D\	.	2d\	.	2a/	2a/
2A\	1r	2e\	1c	1r	2.cc\
2E\	.	2e\	.	.	.
.	.	.	.	.	4b\
=34	=34	=34	=34	=34	=34
2F\	2r	2c\	2r	1r	2a/
2F\	2D\	2A/	2d\	.	2a/
1E	2G\	1B	2e\	2r	1g
.	2E\	.	2e\	2g/	.
=35	=35	=35	=35	=35	=35
2r	2F\	1A	2c\	2a/	0r
2D\	2F\	.	2A/	2a/	.
2G\	1E	1r	1B	1g	.
2E\	.	.	.	.	.
=36	=36	=36	=36	=36	=36
2F\	2r	2r	1A	1a	1r
2F\	2D\	2d\	.	.	.
1E	2G\	2e\	1r	1g	2r
.	2E\	2e\	.	.	2g/
=37	=37	=37	=37	=37	=37
1r	1F	2c\	2r	1r	2a/
.	.	2A/	2d\	.	2a/
2r	1E	1B	2e\	2r	4g/
.	.	.	.	.	4a/
2E\	.	.	2e\	2b\	4b\
.	.	.	.	.	4g/
=38	=38	=38	=38	=38	=38
2E\	1AA	1A	2c\	3.cc\V	1a
2F\	.	.	2A/	6b\	.
.	.	.	.	3a/Z	.
2E\	2r	1r	1B	3g#i/V	2r
.	.	.	.	3a/	.
2E\	2E\	.	.	.	2b\
.	.	.	.	3g#i/Z	.
=39	=39	=39	=39	=39	=39
2AA/	2E\	[0Al	1A	2a/	2cc\
2D\	2D\	.	.	2f/	2a/
2C/	1E	.	1r	2e/	2.cc\
2AA/	.	.	.	2c/	.
.	.	.	.	.	4b\
=40	=40	=40	=40	=40	=40
1D	2.F\	0A_	[0Al	1d	4a/
.	.	.	.	.	4g/
.	.	.	.	.	1f
.	4D\	.	.	.	.
1D	1F	.	.	1d	.
.	.	.	.	.	4e/
.	.	.	.	.	4d/
=41	=41	=41	=41	=41	=41
0AAl	0El	0A]	0A]	0el	0cl
==	==	==	==	==	==
*-	*-	*-	*-	*-	*-
!!!RDF**kern: l=long note in original notation
!!!RDF**kern: i=editorial accidental
!!!ENC:	Will Watson 09/09/2011
!!!END:	2011/09/09/
!!!EED:	Jesse Rodin
!!!EEV:	2011/10/07/
!!attribution-level@Jos: 1 (secure)
!!!ONB:	Translated from MusicXML and edited on 2011/10/07/ by Craig Sapp
!!muse2ps: C^@{COM}\n@{SCT}^i2I150v95,95,95,95,95,130Q16
